!!!!SEGMENT: pl-wnifc--2370-n_mikuli-karol--mazourka-op-11.krn
!!!cenid: 18xx:3886
!!!COM: Mikuli, Karol
!!!COM-rismID: pe106110
!!!CDT: 1819-1897
!!!CNT:
!!!OTL: Mazourka op. 11
!!!PDT: 1866
!!!AGN:
!!!SMS-siglum: PL-Wnifc
!!!SMS-shelfmark: 2370/n
!!!SMS-shelfwork: W
!!!SMS-variant:
!!!SMS-altvar:
!!!NIFC-rismSourceID: 300605260
!!!NIFC-islandoraID: nifc:211941
!!!URL-pdf-islandora: https://repozytorium.nifc.pl/islandora/object/nifc%3A211941/datastream/PDF/view
!!!URL-scan: https://polish.musicsources.pl/pl/lokalizacje/galeria/druki-muzyczne/16815 @EN{Scan on Polish Music Sources Website} @PL{Skany w portalu Dziedzictwo Muzyki Polskiej w otwartym dostępie}
!!!ONB-nifc:
!!!AIN: 2 piano
!!!key: b
**kern	**dynam	**kern	**fing	**dynam
*part2	*part2	*part1	*part1	*part1
*staff2	*	*staff1	*	*
*I"Piano.	*	*I"Piano.	*	*
*I'pf	*	*I'pf	*	*
*ICklav	*	*ICklav	*	*
*Ipiano	*	*Ipiano	*	*
*clefF4	*	*clefG2	*	*
*k[f#c#]	*	*k[f#c#]	*	*
*b:	*	*b:	*	*
*M3/4	*	*M3/4	*	*
*MM126	*	*MM126	*	*
!	!	!LO:TX:a:t=M.M. [quarter]=126	!	!
8r	.	(24f#\LL	.	p
.	.	24ff#\	.	.
.	.	24ff#\JJ	.	.
=1	=1	=1	=1	=1
*ped	*	*	*	*
4BBB/	p	8fff#\L)	.	.
.	.	16r	.	.
.	.	(16f#\Jk	.	.
4F#\ 4B 4d	.	4ddW\) 4ff#	.	.
!	!	!LO:TUP:a:problem:klamra łukowa	!	!
!	!	!	!	!
*Xped	*	*	*	*
4G\ 4B 4e	.	12cc#y\L 12ee	.	.
.	.	12dd\ 12ff#	.	.
.	.	12ee\J 12gg	.	.
=2	=2	=2	=2	=2
*ped	*	*	*	*
4BBB/	.	(8.ddW\L 8.ff#	.	.
.	.	16cc#y\Jk 16ee	.	.
4F#\ 4B 4d	.	4dd\ 4ff#	.	.
*Xped	*	*	*	*
4G\ 4B 4e	.	4cc#\) 4bb	.	.
=3	=3	=3	=3	=3
*ped	*	*	*	*
4BBB/	.	(8.bW\L 8.dd	.	.
.	.	16a#X\Jk 16cc#	.	<
4F#\ 4B 4d	.	4b\ 4dd	.	.
*Xped	*	*	*	*
4EE/ 4E	.	4g\) 4cc# 4ee	.	[[
!!LO:LB:g=original	!	!	!
=4	=4	=4	=4	=4
*ped	*	*	*	*
4BBB/	.	4.f#\ 4.dd 4.ff#	.	mf
4F#\ 4B 4d	.	.	.	.
.	.	(8ff#\L	.	p
.	.	8qaa/	.	.
*Xped	*	*	*	*
4r	.	8.gg\	.	.
.	.	16ff#\Jk)	.	.
=5	=5	=5	=5	=5
*ped	*	*	*	*
.	.	(8qff#/	.	.
4GGG/	p	8fff#\L)	.	.
.	.	16r	.	.
.	.	(16fff#\Jk	.	.
4G\ 4B	.	4b\	.	.
.	.	(16qqe/LL	.	.
.	.	16qqcc#/	.	.
.	.	16qqdd/JJ	.	.
*Xped	*	*	*	*
4FF#\ 4A#X	.	4e/) 4cc#	.	.
=6	=6	=6	=6	=6
*ped	*	*	*	*
4BB\ 4B	.	8d/L) 8b	.	.
.	.	16r	.	.
.	.	(16f#/Jk	.	.
4F#\ 4B 4d	.	8b\L	.	<
.	.	8cc#\	.	.
*Xped	*	*	*	*
4r	.	8dd\	.	.
.	.	8ee\J	.	[[
=7	=7	=7	=7	=7
*ped	*	*	*	*
.	.	8qff#/)	.	.
4GGG/	.	8fff#\L	.	.
.	.	16r	.	.
.	.	(16fff#\Jk	.	.
4G\ 4B	.	4b\	.	.
.	.	(16qqe/LL	.	.
.	.	16qqcc#/	.	.
.	.	16qqdd/JJ	.	.
*Xped	*	*	*	*
4FF#\ 4A#X	.	4e/) 4cc#	.	.
=8	=8	=8	=8	=8
*ped	*	*	*	*
4BB\ 4B	.	2d/) 2b	.	.
4F#\ 4B 4d	.	.	.	.
*Xped	*	*	*	*
4r	.	8r	.	.
.	.	(24f#\LL	.	.
.	.	24ff#\	.	.
.	.	24ff#\JJ	.	.
!!LO:LB:g=original	!	!	!
=9	=9	=9	=9	=9
*ped	*	*	*	*
4BBB/	.	8fff#\L)	.	.
.	.	16r	.	.
.	.	(16f#\Jk	.	.
4F#\ 4B 4d	.	4ddW\) 4ff#	.	.
!	!	!LO:TUP:a:problem:klamra łukowa	!	!
*Xped	*	*	*	*
4G\ 4B 4e	.	12cc#y\L 12ee	.	.
.	.	12dd\ 12ff#	.	.
.	.	12ee\J 12gg	.	.
=10	=10	=10	=10	=10
*ped	*	*	*	*
4BBB/	.	(8.ddW\L 8.ff#	.	.
.	.	16cc#y\Jk 16ee	.	.
4F#\ 4B 4d	.	4dd\ 4ff#	.	.
*Xped	*	*	*	*
4G\ 4B 4e	.	4cc#\) 4bb	.	.
=11	=11	=11	=11	=11
*ped	*	*	*	*
4BBB/	.	(8.bW\L 8.dd	.	<
.	.	16a#X\Jk 16cc#	.	.
4F#\ 4d	.	4b\ [4dd	.	.
*Xped	*	*	*	*
4GG/ 4G	.	4e/ 4b-X 4dd_ 4ee	.	[[
=12	=12	=12	=12	=12
*ped	*	*	*	*
4DD/ 4D	.	4.f#\) 4.an 4.dd] 4.ff#	.	mf
4F#\ 4A 4d	.	.	.	.
.	.	(8ff#\L	.	p
.	.	8qaa/	.	.
*Xped	*	*	*	*
4r	.	8.gg\	.	.
.	.	16ff#\Jk)	.	.
=13	=13	=13	=13	=13
.	.	(8qff#/	.	p
*ped	*	*	*	*
4GGG/	.	8fff#\L)	.	.
.	.	16r	.	.
.	.	(16eee\Jk	.	.
4G\ 4B	.	4b\	.	.
.	.	(16qqe/LL	.	.
.	.	16qqcc#/	.	.
.	.	16qqdd/JJ	.	.
*Xped	*	*	*	*
4FF#\ 4A#X	.	4e/) 4cc#	.	.
!!LO:LB:g=original	!	!	!
=14	=14	=14	=14	=14
*ped	*	*	*	*
4BB\ 4B	.	8d/L) 8b	.	.
.	.	16r	.	.
.	.	(16f#/Jk	.	.
4F#\ 4B 4d	.	8b\L	.	.
.	.	8cc#\	.	.
*Xped	*	*	*	*
4r	.	8dd\	.	.
.	.	8ee\J	.	.
=15	=15	=15	=15	=15
.	.	(8qff#/)	.	.
*ped	*	*	*	*
4GGG/	.	8fff#\L)	.	.
.	.	16r	.	.
.	.	(16fff#\Jk	.	.
4G\ 4B	.	4b\	.	.
.	.	(16qqe/LL	.	.
.	.	16qqcc#/	.	.
.	.	16qqdd/JJ	.	.
*Xped	*	*	*	*
4FF#\ 4A#X	.	4e/) 4cc#	.	.
=16	=16	=16	=16	=16
*ped	*	*	*	*
4BB\ 4B	.	2d/) 2b	.	.
4F#\ 4B 4d	.	.	.	.
*Xped	*	*	*	*
4r	.	8r	.	.
.	.	(24b\LL	.	mf
.	.	24bb\	.	.
.	.	24bb\JJ	.	.
=17	=17	=17	=17	=17
*	*	*^	*	*
*ped	*	*	*	*	*
4BBB/ 4BB	.	8bbb\L)	4ryy	.	.
.	.	16r	.	.	.
.	.	(16b\Jk	.	.	.
4F#\ 4B 4d#X	.	4bb/	4ff#\ 4aa	.	.
!	!	!LO:TUP:a:problem:klamra łukowa	!	!	!
*Xped	*	*	*	*	*
4DD#X/ 4D#X	.	12aa#X/L	4ff#\ 4aan	.	.
.	.	12bb/	.	.	.
.	.	12cccn/J	.	.	.
*	*	*v	*v	*	*
=18	=18	=18	=18	=18
4EE/ 4E	.	8gg\L) 8bb	.	.
.	.	16r	.	.
.	.	(16bbW\Jk 16ggg	.	.
4G\ 4B 4e	.	4aa\ 4fff#	.	.
4GG/ 4G	.	4gg\ 4eee	.	.
!!LO:PB:g=original	!	!	!
=19	=19	=19	=19	=19
*ped	*	*	*	*
4BB\ 4B	.	8ff#\L) 8ddd#X	.	.
.	.	16r	.	.
.	.	(16ee\Jk 16cccn	.	.
4F#\ 4B 4d#X	.	8dd#X\L 8bb	.	.
.	.	8ccn\ 8aa	.	.
*Xped	*	*	*	*
4BBB/ 4BB	.	8b\ 8gg	.	.
.	.	8a\J 8ff#	.	.
=20	=20	=20	=20	=20
.	.	8qaa/	.	.
*ped	*	*	*	*
4EE/ 4E	.	8.b\L 8.gg	.	.
.	.	16a\Jk 16ff#	.	.
4G\ 4e	.	8g\L) 8ee	.	.
.	.	(8dd#X\	.	.
*Xped	*	*	*	*
4r	.	8ee\	.	.
.	.	8ee#X\J	.	.
=21	=21	=21	=21	=21
.	.	(8qff#/)	.	.
*	*	*^	*	*
*ped	*	*	*	*	*
4AAA#X/ 4AA#X	.	8ff#\L) 8ccc# 8fff#	2ryy	.	.
.	.	16r	.	.	.
.	.	(16f#\Jk	.	.	.
4F#\ 4c# 4e	.	4cc#m\ 4ff#	.	.	.
!	!	!LO:TUP:a:problem:klamra łukowa	!	!	!
*Xped	*	*	*	*	*
4F#\ 4A#X 4e	.	12ee#X/L	4cc#\ 4een	.	<
.	.	12ff#/	.	.	.
.	.	12gg/J	.	.	.
=22	=22	=22	=22	=22	=22
*ped	*	*	*	*	*
4BBB/ 4BB	.	8.dd\L) 8.ff#	4ryy	.	[
.	.	[<16ff#\Jk	.	.	>
4F#\ 4B 4d	.	4dd\ 4ddd	2ff#/_>	.	.
*Xped	*	*	*	*	*
4AAAn/ 4AAn	.	4cc#\ 4ccc#	.	.	.
=23	=23	=23	=23	=23	=23
.	.	(<8qcc#/ 8qccc#	.	.	.
*ped	*	*	*	*	*
4GGG/ 4GG	.	8.b\L) 8.bb	2ff#/]	.	.
.	.	16a#X\Jk 16aa#X	.	.	.
[<4G\	.	2b\ 2bb	.	.	.
*Xped	*	*	*	*	*
4G\] [4c#	.	.	4ee#X/	.	.
*	*	*v	*v	*	*
!!LO:LB:g=original	!	!	!
=24	=24	=24	=24	=24
*^	*	*	*	*
*ped	*	*	*	*	*
4G\ 4c#]	2ryy	.	8a#X\L 8ff#	.	]
.	.	.	16r	.	.
.	.	.	(16ff#\Jk	.	f
4FFF#/ 4FF#	.	.	4aa#X\) 4fff#	.	.
!	!LO:TUP:b:problem:klamra łukowa	!	!LO:TUP:a:problem:klamra łukowa	!	!
*Xped	*	*	*	*	*
[4f#/	12d\L	.	12g#X\L 12b	.	.
.	12c#\	.	12a#\ 12cc#	.	.
.	12B\J	.	12b\J 12dd	.	.
=25	=25	=25	=25	=25	=25
2f#/]	4c#\	.	8.a#Xm\L 8.cc#	.	.
.	.	.	16g#X\Jk 16b	.	.
.	4F#\	.	4a#\ 4cc#	.	.
*ped	*	*	*	*	*
4FF#/ 4F#	4ryy	.	4f#\ 4ff#	.	.
*v	*v	*	*	*	*
=26	=26	=26	=26	=26
*	*	*8va	*	*
*	*	*^	*	*
*	*	*	*^	*	*
4FFF#/ 4FF#	.	8fff#\L 8ffff#	4ryy	2ryy	.	.
*	*	*X8va	*	*	*	*
.	.	16r	.	.	.	.
!	!	!LO:TX:a:i:t=loco	!	!	!	!
.	.	[<16f#\Jk	.	.	.	.
4F#\ 4c#	.	2cc#/	4f#\] 4a#X	.	.	.
!	!	!	!	!LO:TUP:a:problem:klamra łukowa	!	!
*Xped	*	*	*	*	*	*
4C#\ 4B	.	.	4e#X\	12g#X/L	.	.
.	.	.	.	12a#/	.	.
.	.	.	.	12g#/J	.	.
*	*	*	*v	*v	*	*
=27	=27	=27	=27	=27	=27
8.F#\L 8.A#X	.	8f#/L	8c#X\L	.	.
.	.	16r	16r	.	.
16BB\Jk 16F#	.	16d#X/Jk	16B\Jk	.	.
4FF#/ 4F#	.	4f#/	4A#X\ 4c#	.	.
*ped	*	*	*	*	*
[4FF#/	.	4f#/ 4ff#	4ryy	.	.
*	*	*v	*v	*	*
=28	=28	=28	=28	=28
*^	*	*	*	*
4FFF#/ 4FF#]	4ryy	.	8ff#\L 8fff#	.	.
.	.	.	16r	.	.
.	.	.	16f#\Jk	.	.
2f#/	4F#\ 4c#	.	4a#XW\ 4cc#	.	.
!	!LO:TUP:a:problem:klamra łukowa	!	!LO:TUP:a:problem:klamra łukowa	!	!
*Xped	*	*	*	*	*
.	12dn\L	.	12g#X\L 12b	.	.
.	12c#\	.	12a#\ 12cc#	.	.
.	12B\J	.	12b\J 12ddn	.	.
!!LO:LB:g=original	!	!	!	!
=29	=29	=29	=29	=29	=29
2f#/	4c#\	.	8.a#XW\L 8.cc#	.	.
.	.	.	16g#X\Jk 16b	.	.
.	4F#\	.	4a#\ 4cc#	.	.
*ped	*	*	*	*	*
4FF#/ 4F#	4ryy	.	4f#\ 4ff#	.	.
*v	*v	*	*	*	*
=30	=30	=30	=30	=30
*	*	*8va	*	*
*	*	*^	*	*
*	*	*	*^	*	*
4FFF#/ 4FF#	.	8fff#\L 8ffff#	4ryy	2ryy	.	.
*	*	*X8va	*	*	*	*
.	.	16r	.	.	.	.
.	.	[<16f#\Jk	.	.	.	.
!	!	!LO:TX:a:i:t=loco	!	!	!	!
4F#\ 4c#	.	2cc#/	4f#\] 4a#X	.	.	.
!	!	!	!	!LO:TUP:a:problem:klamra łukowa	!	!
*Xped	*	*	*	*	*	*
4C#\ 4B	.	.	4e#X\	12g#X/L	.	.
.	.	.	.	12a#/	.	.
.	.	.	.	12g#/J	.	.
*	*	*	*v	*v	*	*
=31	=31	=31	=31	=31	=31
2F#\ 2A#X	.	8.f#/L	2c#\	.	.
.	.	16c#/Jk	.	.	.
.	.	4f#/	.	.	.
!	!	!LO:TUP:a:problem:klamra łukowa	!	!	!
4E#X\ 4B	.	12g/L	4d\	.	.
.	.	12an/	.	.	.
.	.	12g/J	.	.	.
=32	=32	=32	=32	=32	=32
!	!	!	!	!	!LO:HP:b:t=dimin.
2F#\ 2A#X	.	8.f#/L	2c#\	.	>
.	.	16c#/Jk	.	.	.
.	.	4f#/	.	.	.
!	!	!LO:TUP:a:problem:klamra łukowa	!	!	!
4E#X\ 4B	.	12g/L	4d\	.	.
.	.	12an/	.	.	.
.	.	12g/J	.	.	.
=33	=33	=33	=33	=33	=33
*^	*	*	*	*	*
2F#/	[2.FF#\	.	8.f#/L	2A#X\ 2c#	.	.
.	.	.	16c#/Jk	.	.	.
.	.	.	4f#/	.	.	.
!	!	!	!LO:TUP:a:problem:klamra łukowa	!	!	!
4E/	.	.	12g/L	4A#\ 4c#	.	.
.	.	.	12an/	.	.	.
.	.	.	12g/J	.	.	.
!!LO:LB:g=original	!	!	!	!	!
=34	=34	=34	=34	=34	=34	=34
*	*^	*	*	*	*	*
8.B/L	2.FF#\]	4D#X\	.	(2.f#/	4f#\	.	.
16F#/Jk	.	.	.	.	.	.	.
4Dn/ 4G#X/ 4B	.	4Dn/yy	.	.	4e#X\	.	.
4C#/ 4A#X/	.	4C#/yy	.	.	4en\	.	.
*v	*v	*v	*	*	*	*	*
*	*	*v	*v	*	*
=35	=35	=35	=35	=35
.	.	16qqB/LL 16qqd	.	.
.	.	16qqf#/	.	.
.	.	16qqff#/JJ	.	.
*^	*	*	*	*
*ped	*	*	*	*	*
4BB/	4BBB\	.	8fff#\L)	.	p
.	.	.	16r	.	.
.	.	.	(16f#\Jk	.	.
4F#\ 4B 4d	2ryy	.	4ddW\) 4ff#	.	.
!	!	!	!LO:TUP:a:problem:klamra łukowa	!	!
*Xped	*	*	*	*	*
4G\ 4B 4e	.	.	12cc#y\L 12ee	.	.
.	.	.	12dd\ 12ff#	.	.
.	.	.	12ee\J 12gg	.	.
*v	*v	*	*	*	*
=36	=36	=36	=36	=36
*ped	*	*	*	*
4BBB/	.	(8.ddW\L 8.ff#	.	.
.	.	16cc#y\Jk 16ee	.	.
4F#\ 4B 4d	.	4dd\ 4ff#	.	.
*Xped	*	*	*	*
4G\ 4B 4e	.	4cc#\) 4bb	.	.
=37	=37	=37	=37	=37
*ped	*	*	*	*
4BBB/	.	(8.bW\L 8.dd	.	.
.	.	16a#X\Jk 16cc#	.	.
4F#\ 4B 4d	.	4b\ 4dd	.	.
*Xped	*	*	*	*
4EE/ 4E	.	4g\ 4cc# 4ee	.	.
=38	=38	=38	=38	=38
*ped	*	*	*	*
4BBB/ 4BB	.	4.f#\) 4.dd 4.ff#	.	.
4F#\ 4B 4d	.	.	.	.
.	.	8ff#\L	.	.
.	.	8qaa/	.	.
*Xped	*	*	*	*
4r	.	8.gg\	.	.
.	.	16ff#\Jk	.	.
!!LO:LB:g=original	!	!	!
=39	=39	=39	=39	=39
.	.	8qff#/	.	.
*ped	*	*	*	*
4GGG/	.	8fff#\L	.	.
.	.	16r	.	.
.	.	(16fff#\Jk	.	.
4G\ 4B	.	4b\	.	.
.	.	(16qqe/LL	.	.
.	.	16qqcc#/	.	.
.	.	16qqdd/JJ	.	.
*Xped	*	*	*	*
4FF#\ 4A#X	.	4e/) 4cc#	.	.
=40	=40	=40	=40	=40
*ped	*	*	*	*
4BB\ 4B	.	8d/L) 8b	.	.
.	.	16r	.	.
.	.	(16f#/Jk	.	.
4F#\ 4B 4d	.	8b\L	.	.
.	.	8cc#\	.	.
*Xped	*	*	*	*
4r	.	8dd\	.	.
.	.	8ee\J	.	.
=41	=41	=41	=41	=41
.	.	8qff#/	.	.
*ped	*	*	*	*
4GGG/	.	8fff#\L)	.	.
.	.	16r	.	.
.	.	(16fff#\Jk	.	.
4G\ 4B	.	4b\	.	.
.	.	(16qqe/LL	.	.
.	.	16qqcc#/	.	.
.	.	16qqdd/JJ	.	.
*Xped	*	*	*	*
4FF#\ 4A#X	.	4e/) 4cc#	.	.
=42	=42	=42	=42	=42
*ped	*	*	*	*
4BB\ 4F# 4B	.	2d;/) 2b	.	.
4BBB;/ 4BB	.	.	.	.
*Xped	*	*	*	*
4r	.	(>4f#/	.	.
!!LO:PB:g=original	!	!	!
=43||	=43||	=43||	=43||	=43||
*k[f#c#g#d#a#]	*	*k[f#c#g#d#a#]	*	*
*^	*	*^	*	*
!	!	!	!LO:TX:a:i:t=dolce	!	!	!
4r	2ryy	.	4.dd#/	8r	.	.
.	.	.	.	8d#\	.	.
*ped	*	*	*	*	*	*
4BB\ 4B	.	.	.	4f#\	.	.
.	.	.	8ff#/L	.	.	.
8A#/L	4FF#\	.	8cc#/	8e\L	.	.
*Xped	*	*	*	*	*	*
[8F#/J	.	.	8dd#/J	8f#\J	.	.
*v	*v	*	*	*	*	*
=44	=44	=44	=44	=44	=44
*ped	*	*	*	*	*
4BB\ 4F#] 4B	.	8b/L)	8d#\	.	.
.	.	16r	8ryy	.	.
.	.	16f#/Jk	.	.	.
4F#\ 4B 4d#	.	4b/	2ryy	.	.
*Xped	*	*	*	*	*
4F#\ 4A# 4e	.	4cc#/	.	.	.
=45	=45	=45	=45	=45	=45
!	!	!LO:N:vis=2	!	!	!
*ped	*	*	*	*	*
4BB/	.	(8dd#/L	2.dd#\	.	.
!	!	!LO:TUP:b:problem:klamra łukowa	!	!	!
.	.	24ddd#/L	.	.	.
.	.	24eee/	.	.	.
.	.	24ddd#/JJ	.	.	.
4F#\ 4d#	.	8ccc#/L	.	.	.
.	.	8bb/	.	.	.
*Xped	*	*	*	*	*
4F#\ 4d#	.	8aa#/	.	.	.
.	.	8gg#/J	.	.	.
=46	=46	=46	=46	=46	=46
*ped	*	*	*	*	*
4FF#/	.	8ff#/L	4.ee\	.	.
.	.	8ff##X/	.	.	.
4F#\ 4e	.	8aa#/	.	.	.
.	.	8gg#/	8b#X\L	.	.
*Xped	*	*	*	*	*
4AA#/	.	8ff#X/	8cc#\	.	.
.	.	8ee/J)	[8f#\J	.	.
=47	=47	=47	=47	=47	=47
*^	*	*	*	*	*
*ped	*	*	*	*	*	*
4BB/	2ryy	.	(4.dd#/	8f#\L]	.	.
.	.	.	.	8d#\J	.	.
4F#\ 4B	.	.	.	4f#\	.	.
.	.	.	8ff#/L	.	.	.
8A#/L	4FF#\	.	8cc#/	8e\L	.	.
*Xped	*	*	*	*	*	*
8F#/J	.	.	8dd#/J	8f#\J	.	.
*v	*v	*	*	*	*	*
=48	=48	=48	=48	=48	=48
*ped	*	*	*	*	*
4BB\ 4B	.	8b/L	8d#\L	.	.
.	.	8f#/J	[8f#\J	.	.
4F#\ 4B 4d#	.	8ff#/L	2f#\]	.	.
!	!	!LO:TUP:b:problem:klamra łukowa	!	!	!
.	.	24ff#/L	.	.	.
.	.	24gg#/	.	.	.
.	.	24ff#/JJ	.	.	.
*Xped	*	*	*	*	*
4BBB#X/ 4BB#X	.	8an/L 8ee#X	.	.	.
.	.	8dd#/J	.	.	.
!!LO:LB:g=original	!	!	!	!
=49	=49	=49	=49	=49	=49
*ped	*	*	*	*	*
4CC#/ 4C#	.	8b#X/L)	4e#X\ 4g#	.	.
.	.	16r	.	.	.
.	.	(16cc#/Jk	.	.	.
*clefG2	*	*	*	*	*
4c#/ 4f#	.	4bbn/)	4bn\ 4dd#	.	<
*Xped	*	*	*	*	*
4c#/ 4g#	.	4bb/	4b\ 4ee#X	.	.
*clefF4	*	*	*	*	*
=50	=50	=50	=50	=50	=50
*^	*	*	*	*	*
*ped	*	*	*	*	*	*
4FF#/	4ryy	.	4.aa#/	4.a#\ 4.ff#	.	[ f >
*clefG2	*	*	*	*	*below	*
4c#/ 4a#	2f#\	.	.	.	.	.
.	.	.	8ff#W/L	4.ryy	4	.
*Xped	*	*	*	*	*	*
4B#X/ 4an	.	.	8ee#X/	.	5	.
.	.	.	8dd#/J	.	.	.
*v	*v	*	*	*	*	*
*clefF4	*	*	*	*	*
=51	=51	=51	=51	=51	=51
*ped	*	*	*	*	*
4CC#/ 4C#	.	(8b#X/L	4e#X\ 4bn	.	]
.	.	8cc#/J	.	.	.
4c#\ 4g#	.	4ddn/)	4e#\ 4b	.	.
*Xped	*	*	*	*	*
[4C#/	.	(4g##X/	(4B\ 4e#	.	.
=52	=52	=52	=52	=52	=52
*^	*	*	*	*	*
2.FF#/ 2.F#	N[>4C#\]	.	8a#/L	4A#\ 4f#	.	.
!	!	!	!LO:TUP:b:problem:klamra łukowa	!	!	!
.	.	.	24f#/L	.	.	.
.	.	.	24g#X/	.	.	.
.	.	.	24f#/JJ	.	.	.
.	4BB#X\	.	8e#X/L	4G##X\	.	.
.	.	.	8d#/J	.	.	.
.	4C#\N]	.	4c#/)	4A#\)	.	.
*v	*v	*	*	*	*	*
=53	=53	=53	=53	=53	=53
*	*	*ped	*	*	*
4CC#/	.	(8.b#X/L	4e#X\ 4bn	.	<
.	.	16cc#/Jk	.	.	.
*clefG2	*	*	*	*	*
4c#/ 4f#	.	4bbn/)	4bn\ 4dd#	.	.
*	*	*Xped	*	*	*
4c#/ 4g#	.	4bb/	4b\ 4ee#X	.	[[
=54	=54	=54	=54	=54	=54
*^	*	*	*	*	*
*	*	*	*ped	*	*	*
4F#/ 4f#	4ryy	.	8aa#/L	4a#\ 4ff#	.	.
.	.	.	[<8ff#/J	.	.	.
4c#/ 4a#	2f#\	.	8ff#\L] 8fff#	4ryy	.	<
!	!	!	!LO:TUP:a:problem:klamra łukowa	!	!	!
.	.	.	24ff#\L 24fff#	.	.	.
.	.	.	24ggg#\	.	.	.
.	.	.	24fff#\JJ	.	.	.
4B#X/ 4an	.	.	8ee#X\L 8eee	4ryy	.	.
.	.	.	8dd#\J 8ddd#	.	.	[[
*	*	*	*Xped	*	*	*
*v	*v	*	*	*	*	*
*	*	*v	*v	*	*
!!LO:LB:g=original	!	!	!	!
=55	=55	=55	=55	=55
*ped	*	*	*	*
8c#/L 8f# 8a#	.	(8cc#\L 8ff# 8ccc#	.	p
8c#/J 8f# 8a#	.	8cc##X\J 8ff# 8ccc##X	.	.
4c#/ 4f# 4b	.	4dd#\) 4ff# 4ddd#	.	.
*Xped	*	*	*	*
4c#/ 4g# 4cc#	.	4b\ 4ee#X	.	.
=56	=56	=56	=56	=56
*ped	*	*	*	*
4f#/ 4cc#	.	2a#\ 2ff#	.	.
*clefF4	*	*	*	*
4FF#/	.	.	.	.
*Xped	*	*	*	*
4r	.	(>4f#/	.	.
=57	=57	=57	=57	=57
*^	*	*^	*	*
4r	2ryy	.	4.dd#/	8r	.	.
.	.	.	.	8d#\	.	.
*ped	*	*	*	*	*	*
4BB\ 4B	.	.	.	4f#\	.	.
.	.	.	8ff#/L	.	.	.
8A#/L	4FF#\	.	8cc#/	8e\L	.	.
*Xped	*	*	*	*	*	*
[<8F#/J	.	.	8dd#/J	8f#\J	.	.
*v	*v	*	*	*	*	*
=58	=58	=58	=58	=58	=58
*ped	*	*	*	*	*
4BB\ 4F#] 4B	.	8b/L)	8d#\	.	.
.	.	16r	8ryy	.	.
.	.	16f#/Jk	.	.	.
4F#\ 4B 4d#	.	4b/	2ryy	.	.
*Xped	*	*	*	*	*
4F#\ 4A# 4e	.	4cc#/	.	.	.
=59	=59	=59	=59	=59	=59
!	!	!LO:N:vis=2	!	!	!
*ped	*	*	*	*	*
4BB/	.	(8dd#/L	2.dd#\	.	.
!	!	!LO:TUP:b:problem:klamra łukowa	!	!	!
.	.	24ddd#/L	.	.	.
.	.	24eee/	.	.	.
.	.	24ddd#/JJ	.	.	.
4F#\ 4d#	.	8ccc#/L	.	.	.
.	.	8bb/	.	.	.
*Xped	*	*	*	*	*
4F#\ 4d#	.	8aa#/	.	.	.
.	.	8gg#/J	.	.	.
=60	=60	=60	=60	=60	=60
*ped	*	*	*	*	*
4FF#/	.	8ff#/L	4.ee\	.	.
.	.	8ff##X/	.	.	.
4F#\ 4e	.	8aa#/	.	.	.
.	.	8gg#/	8b#X\L	.	.
*Xped	*	*	*	*	*
4AA#/	.	8ff#X/	8cc#\	.	.
.	.	8ee/J)	[8f#\J	.	.
!!LO:LB:g=original	!	!	!	!	!
=61	=61	=61	=61	=61	=61
*^	*	*	*	*	*
*ped	*	*	*	*	*	*
4BB/	2ryy	.	(4.dd#/	8f#\L]	.	.
.	.	.	.	8d#\J	.	.
4F#\ 4B	.	.	.	4f#\	.	.
.	.	.	8ff#/L	.	.	.
8A#/L	4FF#\	.	8cc#/	8e\L	.	.
*Xped	*	*	*	*	*	*
8F#/J	.	.	8dd#/J	8f#\J	.	.
*v	*v	*	*	*	*	*
=62	=62	=62	=62	=62	=62
*	*	*	*^	*	*
*ped	*	*	*	*	*	*
4BB\ 4B	.	8b/L	8d#\L	2ryy	.	.
.	.	8f#/J	[8f#\J	.	.	.
4F#\ 4B 4d#	.	8ff#/L	2f#\]	.	.	.
!	!	!LO:TUP:b:problem:klamra łukowa	!	!	!	!
.	.	24ff#/L	.	.	.	.
.	.	24gg#/	.	.	.	.
.	.	24ff#/JJ	.	.	.	.
*Xped	*	*	*	*	*	*
4BBB#X/ 4BB#X	.	8ee#X/L	.	4an\	.	.
.	.	8dd#/J	.	.	.	.
=63	=63	=63	=63	=63	=63	=63
*ped	*	*	*	*	*	*
4CC#/ 4C#	.	8b#X/L)	4e#X\ 4g#	2.r	.	.
.	.	16r	.	.	.	.
.	.	(16cc#/Jk	.	.	.	<
*clefG2	*	*	*	*	*	*
4c#/ 4f#	.	4bbn/)	4bn\ 4dd#	.	.	.
*Xped	*	*	*	*	*	*
4c#/ 4g#	.	4bb/	4b\ 4ee#X	.	.	[[
*	*	*v	*v	*v	*	*
*clefF4	*	*	*	*
=64	=64	=64	=64	=64
*^	*	*	*	*
*ped	*	*	*	*	*
4FF#/	4ryy	.	4.a#\ 4.ff# 4.aa#	.	f >
*clefG2	*	*	*	*	*
4c#/ 4a#	2f#\	.	.	.	.
.	.	.	8ff#M\L	4	.
*Xped	*	*	*	*	*
4B#X/ 4an	.	.	8ee#X\	5	.
.	.	.	8dd#\J	.	]]
*v	*v	*	*	*	*
*clefF4	*	*	*	*
=65	=65	=65	=65	=65
*	*	*^	*	*
*ped	*	*	*	*	*
4CC#/ 4C#	.	(8b#X/L	4e#X\ 4bn	.	.
.	.	8cc#/J	.	.	.
4c#\ 4g#	.	4ddn/)	4e#\ 4b	.	.
*Xped	*	*	*	*	*
[4C#/	.	4g##X/	4B\ 4e#	.	.
=66	=66	=66	=66	=66	=66
*^	*	*	*	*	*
2.FF#/ 2.F#	N[>4C#\]	.	(8a#/L	4A#\ 4f#	.	.
!	!	!	!LO:TUP:b:problem:klamra łukowa	!	!	!
.	.	.	24f#/L	.	.	.
.	.	.	24g#X/	.	.	.
.	.	.	24f#/JJ	.	.	.
.	4BB#X\	.	8e#X/L	4G##X\	.	.
.	.	.	8d#/J	.	.	.
.	4C#\N]	.	4c#/)	4A#\	.	.
*v	*v	*	*	*	*	*
!!LO:LB:g=original	!	!	!	!	!
=67	=67	=67	=67	=67	=67
*ped	*	*	*	*	*
4CC#/	.	(8.b#X/L	4e#X\ 4bn	.	<
.	.	16cc#/Jk	.	.	.
*clefG2	*	*	*	*	*
4c#/ 4f#	.	4bbn/)	4bn\ 4dd#	.	.
*Xped	*	*	*	*	*
4c#/ 4g#	.	4bb/	4b\ 4ee#X	.	[[
=68	=68	=68	=68	=68	=68
*^	*	*	*	*	*
*ped	*	*	*	*	*	*
4F#/ 4f#	4ryy	.	<8aa#/L	4a#\ 4ff#	.	.
.	.	.	[<8ff#/J	.	.	.
4c#/ 4a#	2f#\	.	8ff#\L] 8fff#	2ryy	.	<
!	!	!	!LO:TUP:a:problem:klamra łukowa	!	!	!
.	.	.	24ff#\L 24fff#	.	.	.
.	.	.	24ggg#\	.	.	.
.	.	.	24fff#\JJ	.	.	.
*Xped	*	*	*	*	*	*
4B#X/ 4an	.	.	8ee#X\L 8eee#X	.	.	.
.	.	.	8dd#\J 8ddd#	.	.	[[
*v	*v	*	*	*	*	*
*	*	*v	*v	*	*
=69	=69	=69	=69	=69
*ped	*	*	*	*
8c#/L 8f# 8a#	.	(8cc#\L 8ff# 8ccc#	.	.
8c#/J 8f# 8a#	.	8cc##X\J 8ff# 8ccc##X	.	.
4c#/ 4f# 4b	.	4dd#\) 4ff# 4ddd#	.	.
*Xped	*	*	*	*
4c#/ 4g# 4cc#	.	4b\ 4ee#X	.	.
=70	=70	=70	=70	=70
*ped	*	*	*	*
4f#/ 4cc#	.	4a#\ 4ff#	.	.
*clefF4	*	*	*	*
4FF#/	.	8r	.	.
.	.	(8ff#'\L	.	.
*Xped	*	*	*	*
4r	.	8ff#'\	.	.
.	.	8ff#'\J)	.	.
=71	=71	=71	=71	=71
*ped	*	*	*	*
4GGn/	.	(4.ff#\	.	p
4Gn\ 4B 4e	.	.	.	.
.	.	8bb\L	.	.
*Xped	*	*	*	*
4r	.	8ee\	.	.
.	.	8bb\J)	.	.
=72	=72	=72	=72	=72
*^	*	*	*	*
*ped	*	*	*	*	*
4FF#/	4ryy	.	(8ee\L	.	.
.	.	.	8an\J	.	.
4c#/	2F#\ 2An	.	4ee\	.	.
*Xped	*	*	*	*	*
4dn/	.	.	4ddn\)	.	.
*v	*v	*	*	*	*
=73	=73	=73	=73	=73
*ped	*	*	*	*
4EE/	.	(4.ddn\	.	p
4E\ 4Gn 4c#	.	.	.	.
.	.	8ggn\L	.	.
*Xped	*	*	*	*
4r	.	8cc#\	.	.
.	.	8gg\J)	.	.
!!LO:PB:g=original	!	!	!	!
=74	=74	=74	=74	=74
*^	*	*	*	*
*ped	*	*	*	*	*
4DDn/	4ryy	.	(8cc#/L	.	.
.	.	.	8f#/J	.	.
4A#/	2Dn\ 2F#	.	4cc#\	.	.
*Xped	*	*	*	*	*
4B/	.	.	[4b\)	.	.
=75	=75	=75	=75	=75	=75
*ped	*	*	*	*	*
4CC#/	4ryy	.	8b\L]	.	.
.	.	.	8ee\J	.	.
2e/	4Gn\	.	4b-X\	.	.
.	8An\L	.	8an/L	.	.
*Xped	*	*	*	*	*
.	[>8B-X\J	.	8gn/J	.	.
*v	*v	*	*	*	*
=76	=76	=76	=76	=76
*ped	*	*	*	*
(<8Dn\L 8B-X]	.	(>8e#X/L	.	<
8An\	.	8f#/	.	.
8d#\	.	8an/	.	.
8f#\	.	8ddn/	.	.
8b\	.	8ggn/	.	.
*Xped	*	*	*	*
8a#\J)	.	8ff#/J)	.	.
=77	=77	=77	=77	=77
*	*	*^	*	*
*ped	*	*	*	*	*
4AAn/	.	8gn/L 8cc# 8dd#	4ryy	.	.
.	.	8ee/J	.	.	[
*clefG2	*	*	*	*	*
4An/ 4e 4gn	.	4ccc#/	4cc#\	.	>
*Xped	*	*	*	*	*
4A/ 4e 4g	.	4bb/	4cc#\	.	.
*clefF4	*	*	*	*	*
=78	=78	=78	=78	=78	=78
*^	*	*	*	*	*
*ped	*	*	*	*	*	*
(4e#X/	(>4Dn\	.	(4bb/	4g#\ [>4ddn	.	.
8f#/)	8dn\)	.	8aan/L)	8an\ 8dd]	.	]
8r	8ryy	.	(8ff#'/	8ryy	.	.
*Xped	*	*	*	*	*	*
4r	4ryy	.	8ff#'/	4ryy	.	.
.	.	.	8ff#'/J)	.	.	.
*v	*v	*	*	*	*	*
*	*	*v	*v	*	*
=79	=79	=79	=79	=79
*ped	*	*	*	*
4GGn/	.	(4.ff#^<\	.	.
4Gn\ 4B 4e	.	.	.	.
.	.	8bb\L	.	.
*Xped	*	*	*	*
4r	.	8ee\	.	.
.	.	8bb\J)	.	.
=80	=80	=80	=80	=80
*^	*	*	*	*
*ped	*	*	*	*	*
4FF#/	4ryy	.	(8ee\L	.	.
.	.	.	8an\J	.	.
4c#/	2F#\ 2An	.	4ee\	.	.
*Xped	*	*	*	*	*
4dn/	.	.	4ddn\)	.	.
*v	*v	*	*	*	*
!!LO:LB:g=original	!	!	!	!
=81	=81	=81	=81	=81
*ped	*	*	*	*
4EE/	.	(4.ddn\	.	.
4E\ 4Gn 4c#	.	.	.	.
.	.	8ggn\L	.	.
*	*	*	*	*
*Xped	*	*	*	*
4r	.	8cc#\	.	.
.	.	8gg\J)	.	.
=82	=82	=82	=82	=82
*^	*	*	*	*
*ped	*	*	*	*	*
4DDn/	4ryy	.	(8cc#/L	.	.
.	.	.	8f#/J	.	.
4A#/	2Dn\ 2F#	.	4cc#\	.	.
4B/	.	.	[4b\)	.	.
*v	*v	*	*	*	*
=83	=83	=83	=83	=83
!	!	!	!	!LO:HP:b:t=dim.
4CC#/	.	(4.b\]	.	>
4C#\ 4Gn 4B	.	.	.	.
.	.	8ee/L	.	.
4r	.	8e/	.	.
.	.	8ee/J	.	.
=84	=84	=84	=84	=84
2.r	.	8b\L	.	.
.	.	8ee\J	.	.
.	.	4e/	.	.
*Xped	*	*	*	*
.	.	4ee\)	.	.
=85	=85	=85	=85	=85
*ped	*	*	*	*
4CC#/	.	4.b\	.	pp
4C#\ 4G#X 4B	.	.	.	.
.	.	8ee#X\L	.	.
4r	.	8e#X\	.	.
.	.	8ee#\J	.	.
=86	=86	=86	=86	=86
!	!	!LO:TUP:a:problem:klamra łukowa	!	!
(8C#\L	.	12b\L	.	.
.	.	12ee#X\	.	.
8c#\J) 8g#	.	.	.	.
.	.	12e#X\J	.	.
*clefG2	*	*	*	*
4ccc#\	.	4r	.	.
*Xped	*	*	*	*
4r	.	4ee#\	.	.
*clefF4	*	*	*	*
=87	=87	=87	=87	=87
*ped	*	*	*	*
8qFF#/	.	.	.	.
4.c#>\ 4.a#>	.	[2.ff#TT/	.	.
8dn>\L 8b>	.	.	.	.
*Xped	*	*	*	*
8B>\ 8g#>	.	.	.	.
8d>\J 8b>	.	.	.	.
!!LO:LB:g=original	!	!	!	!
=88	=88	=88	=88	=88
8.c#>\L 8.a#>	.	2.ff#TTT/_	.	.
16B#X>\Jk 16g##X>	.	.	.	.
4c#>\ 4a#>	.	.	.	.
*ped	*	*	*	*
4FF#/	.	.	.	.
=89	=89	=89	=89	=89
4.c#>\ 4.a#>	.	2.ff#TTT/_>	.	.
8e>\L 8cc#>	.	.	.	.
8d#>\ 8b>	.	.	.	.
*Xped	*	*	*	*
8Bn>\J 8g#X>	.	.	.	.
=90	=90	=90	=90	=90
*	*	*^	*	*
8A#>\L 8f#>	.	2.ff#TTT/_	2ryy	.	<
8B>\ 8g#>	.	.	.	.	.
8c#>\ 8a#>	.	.	.	.	.
8d#>\ 8b>	.	.	.	.	.
8e>\ 8cc#>	.	.	4F#<\	.	.
8e#X>\J 8cc##X>	.	.	.	.	[[
=91	=91	=91	=91	=91	=91
*ped	*	*	*	*	*
4BB\ 4f#	.	2.ff#TTT/_	4.dd#\	.	p
4F#\ 4B 4d#	.	.	.	.	.
.	.	.	8ff#\L	.	.
*Xped	*	*	*	*	*
4F#\ 4A# 4e	.	.	8cc#X\	.	.
.	.	.	8dd#\J	.	.
=92	=92	=92	=92	=92	=92
!	!	!LO:TX:t=P:problem:mixed beam	!	!	!
*ped	*	*	*	*	*
8.BB\L	.	2.ff#TTT/]	8.b\L	.	.
16f#\Jk	.	.	16f#</Jk	.	.
4F#\ 4B 4d#	.	.	4b\	.	.
*Xped	*	*	*	*	*
4F#\ 4A# 4e	.	.	4cc#\	.	.
*	*	*v	*v	*	*
=93	=93	=93	=93	=93
*ped	*	*	*	*
4BB/	.	4dd#TTT\ 4ff#	.	.
.	.	((>16qqeee#X/LL	.	.
.	.	16qqfff#/	.	.
.	.	16qqfff#/JJ	.	.
*	*	*8va	*	*
4F#\ 4B 4d#	.	32eeeen\LLL)	.	.
.	.	32r	.	.
.	.	32dddd#m\	.	.
.	.	32cccc#\	.	.
.	.	32bbb\	.	.
.	.	32aaa#\	.	.
.	.	32ggg#\	.	.
.	.	32fff#\J	.	.
*	*	*X8va	*	*
*	*	*Xtuplet	*	*
!	!	!LO:TX:a:i:t=loco	!	!
4B\ 4d# 4f#	.	24eee\	.	.
.	.	24ddd#\	.	.
.	.	24ccc#\	.	.
.	.	24bb\	.	.
.	.	24aa#\	.	.
*Xped	*	*	*	*
.	.	24gg#\JJ	.	.
!!LO:LB:g=original	!	!	!	!
=94	=94	=94	=94	=94
*	*	*^	*	*
*ped	*	*	*	*	*
(8FFF#/	.	8ff#/L)	4r	.	.
8C#\L	.	16r	.	.	.
.	.	(16ff##X/Jk	.	.	.
8F#\	.	8aa#/L	8ee\L	.	.
8e\J	.	8gg#/	8b#X\J	.	.
*Xped	*	*	*	*	*
4A#\)	.	8ff#X/	4cc#\	.	.
.	.	8ee/J)	.	.	.
=95	=95	=95	=95	=95	=95
*^	*	*	*	*	*
*ped	*	*	*	*	*	*
4BB\ 4B	2ryy	.	(4.dd#/	8r	.	.
.	.	.	.	(>8d#\L	.	.
4F#\ 4B 4d#	.	.	.	8f#\J)	.	.
.	.	.	8ff#/L	8r	.	.
8A#/L	4FF#\	.	8cc#/	8e\L	.	.
*Xped	*	*	*	*	*	*
[<8F#/J	.	.	8dd#/J	8f#\J	.	.
*v	*v	*	*	*	*	*
=96	=96	=96	=96	=96	=96
*ped	*	*	*	*	*
4BB\ 4F#] 4B	.	8b/L	8d#\L	.	<
.	.	8f#/J	8f#\J	.	.
4F#\ 4B 4d#	.	8ff#/L)	[2f#\	.	.
!	!	!LO:TUP:a:problem:klamra łukowa	!	!	!
.	.	(24ff#/L	.	.	.
.	.	24gg#/	.	.	.
.	.	24ff#/JJ	.	.	.
*Xped	*	*	*	*	*
4BBB#X/ 4BB#X	.	N[<8an/L 8ee	.	.	.
.	.	8dd#/J)	.	.	.
=97	=97	=97	=97	=97	=97
*^	*	*	*	*	*
*ped	*	*	*	*	*	*
4CC#/ 4C#	2ryy	.	(4.cc#/	8f#\L] 8aN]	.	.
.	.	.	.	(>8e\	.	.
4C#\ 4c#	.	.	.	8g#\J)	.	.
.	.	.	8gg#/L	8r	.	.
8B#X/L	4C#\	.	8dd#/	8f#\L	.	.
*Xped	*	*	*	*	*	*
8G#/J	.	.	8ee/J	8g#\J	.	.
*v	*v	*	*	*	*	*
=98	=98	=98	=98	=98	=98
*ped	*	*	*	*	*
4C#\ 4G# 4c#	.	8cc#/L	8e\L	.	.
.	.	8g#/J	[8g#\J	.	.
4G#\ 4c# 4e	.	8gg#/L)	2g#\_	.	<
*	*	*tuplet	*	*	*
!	!	!LO:TUP:b:problem:klamra łukowa	!	!	!
.	.	(24gg#/L	.	.	.
.	.	24aa#/	.	.	.
.	.	24gg#/JJ	.	.	.
*Xped	*	*	*	*	*
4CC##X/ 4C##X	.	N[<8b/L 8ff#	.	.	.
.	.	8ee#X/J)	.	.	.
!!LO:LB:g=original	!	!	!	!	!
=99	=99	=99	=99	=99	=99
*^	*	*	*	*	*
*ped	*	*	*	*	*	*
4DD#/ 4D#	4ryy	.	(4.dd#/	8g#\L] 8bN]	.	.
.	.	.	.	(>8f#\	.	.
4D#\ 4A# 4d#	4ryy	.	.	8a#\J)	.	.
.	.	.	8aa#/L	8r	.	.
8c##X/L	4D#\	.	8ee#X/	8g#\L	.	.
*Xped	*	*	*	*	*	*
8A#/J	.	.	8ff#/J	8a#\J	.	.
*v	*v	*	*	*	*	*
=100	=100	=100	=100	=100	=100
*ped	*	*	*	*	*
4D#\ 4A# 4d#	.	8dd#/L	8f#\L	.	.
.	.	8a#/J	[8a#\J	.	.
!	!	!LO:TX:b:i:t=sempre più	!	!	!
4DD#/ 4D#	.	8aa#/L)	2a#\]	.	.
!	!	!LO:TUP:b:problem:klamra łukowa	!	!	!
.	.	24aa#/L	.	.	.
.	.	24bb/	.	.	.
.	.	24aa#/JJ	.	.	.
*Xped	*	*	*	*	*
4EE/ 4E	.	8gg#/L	.	.	.
.	.	8ff##X/J	.	.	.
=101	=101	=101	=101	=101	=101
!	!	!	!LO:TX:b:Bi:t=f _:dur=6q2eh:ext=ud:problem:text with line extensions	!	!
!	!	!	!	!	!LO:DY:b:t=f:ext=ud
*ped	*	*	*	*	*
4EE#X/ 4E#X	.	(8ccc#/L	[4ee#X\	.	f
.	.	8a#/J	.	.	.
4A#\ 4c# 4e#X	.	8ee#/L]) 8ccc#	4ryy	.	.
!	!	!LO:TUP:b:problem:klamra łukowa	!	!	!
.	.	24ccc#/L	.	.	.
.	.	24ddd#/	.	.	.
.	.	24ccc#/JJ	.	.	.
*Xped	*	*	*	*	*
4FF#/ 4F#	.	8bb#X/L	4cc#\	.	.
.	.	8aa#X/J	.	.	.
=102	=102	=102	=102	=102	=102
*ped	*	*	*	*	*
4FF##X/ 4F##X	.	8eee/L	(4aan\	.	.
.	.	8cc#/J	.	.	.
4c#\ 4e 4an	.	8eee/L	8eee\)	.	.
!	!	!LO:TUP:b:problem:klamra łukowa	!	!	!
.	.	24eee/L	8ryy	.	.
.	.	24fff#/	.	.	.
.	.	24eee/JJ	.	.	.
*Xped	*	*	*	*	*
4GG#/ 4G#	.	8ddd#/L	4ee\ 4gg#	.	.
.	.	8ccc#/J	.	.	.
*	*	*v	*v	*	*
=103	=103	=103	=103	=103
*	*	*8va	*	*
*^	*	*^	*	*
*ped	*	*	*	*	*	*
2An/	4AAn\	.	8gggn/L	2ccc#\	.	.
.	.	.	8ee/J	.	.	.
*clefG2	*	*	*	*	*	*
.	4e/ 4gn 4cc#	.	8ggg/L	.	.	.
!	!	!	!LO:TUP:b:problem:klamra łukowa	!	!	!
.	.	.	24ggg/L	.	.	.
.	.	.	24aaan/	.	.	.
.	.	.	24ggg/JJ	.	.	.
*Xped	*	*	*	*	*	*
4r	4ryy	.	8fff#/L	4ggn\ 4ccc#	.	.
.	.	.	8eee/J	.	.	.
*	*	*	*v	*v	*	*
=104	=104	=104	=104	=104	=104
!	!	!	!LO:TX:a:t=m.g.	!	!
*ped	*	*	*	*	*
4fff#>:/	4A#X:/ 4e: 4f#: 4cc#:	.	4ee:/ 4ff#: 4ccc#: 4eee:	.	ff
2ryy	4r	.	4r	.	.
.	4r	.	4r	.	.
*v	*v	*	*	*	*
*	*	*X8va	*	*
*clefF4	*	*	*	*
!!LO:PB:g=original	!	!	!	!
=105	=105	=105	=105	=105
*	*	*^	*	*
!	!	!LO:TX:a:i:t=loco	!	!	!
!	!	!LO:TX:a:B:t=Un poco più lento.	!	!	!
*ped	*	*	*	*	*
(4C#\ 4G#	.	8b/L	2e\	.	p
.	.	8B/J	.	.	.
2CC#/)	.	8b/L	.	.	.
!	!	!LO:TUP:b:problem:klamra łukowa	!	!	!
.	.	24b/L	.	.	.
.	.	24cc#/	.	.	.
.	.	24b/JJ	.	.	.
*Xped	*	*	*	*	*
.	.	8an/L	4B\ 4e	.	.
.	.	8gn/J	.	.	.
*	*	*v	*v	*	*
=106	=106	=106	=106	=106
*^	*	*	*	*
!	!	!	!LO:TX:a:t=m.d.	!	!
*ped	*	*	*	*	*
8ryy	2ryy	.	N(16e/LL 16f#	.	.
.	.	.	16A#/JJ	.	.
!LO:TX:a:t=m.g.	!	!	!	!	!
16C#/LL 16F#	.	.	8ryy	.	.
16FF#/JJ	.	.	.	.	.
!LO:TX:b:t=m.d.	!	!	!	!	!
2AAA#;/N)	.	.	4ryy	.	.
*	*Xped	*	*	*	*
.	4rC	.	8r	.	.
!	!	!	!	!	!
*ped	*	*	*	*	*
.	.	.	(24f#\LL	.	.
.	.	.	24ff#\	.	.
.	.	.	24ff#\JJ	.	.
*v	*v	*	*	*	*
=107||	=107||	=107||	=107||	=107||
*k[f#c#]	*	*k[f#c#]	*	*
4BBB/	.	8fff#\L)	.	p
.	.	16r	.	.
.	.	(16f#\Jk	.	.
4F#\ 4B 4d	.	4ddW\) 4ff#	.	.
!	!	!LO:TUP:a:problem:klamra łukowa	!	!
*Xped	*	*	*	*
4G\ 4B 4e	.	12cc#y\L 12ee	.	.
.	.	12dd\ 12ff#	.	.
.	.	12ee\J 12gg	.	.
=108	=108	=108	=108	=108
*ped	*	*	*	*
4BBB/	.	(8.ddW\L 8.ff#	.	.
.	.	16cc#y\Jk 16ee	.	.
4F#\ 4B 4d	.	4dd\ 4ff#	.	.
*Xped	*	*	*	*
4G\ 4B 4e	.	4cc#\) 4bb	.	.
!!LO:LB:g=original	!	!	!	!
=109	=109	=109	=109	=109
*ped	*	*	*	*
4BBB/	.	(8.bM\L 8.dd	.	.
.	.	16a#X\Jk 16cc#	.	.
4F#\ 4B 4d	.	4b\ 4dd	.	.
*Xped	*	*	*	*
4EE/ 4E	.	4g\ 4cc# 4ee	.	.
=110	=110	=110	=110	=110
*ped	*	*	*	*
4BBB/ 4BB	.	4.f#\) 4.dd 4.ff#	.	.
4F#\ 4B 4d	.	.	.	.
.	.	8ff#\L	.	.
.	.	8qaa/	.	.
*Xped	*	*	*	*
4r	.	8.gg\	.	.
.	.	16ff#\Jk	.	.
=111	=111	=111	=111	=111
.	.	8qff#/	.	.
*ped	*	*	*	*
4GGG/	.	8fff#\L	.	.
.	.	16r	.	.
.	.	(16fff#\Jk	.	.
4G\ 4B	.	4b\	.	.
.	.	(16qqe/LL	.	.
.	.	16qqcc#/	.	.
.	.	16qqdd/JJ	.	.
*Xped	*	*	*	*
4FF#\ 4A#X	.	4e/) 4cc#	.	.
=112	=112	=112	=112	=112
*ped	*	*	*	*
4BB\ 4B	.	8e/L) 8b	.	.
.	.	16r	.	.
.	.	(16f#/Jk	.	.
4F#\ 4B 4d	.	8b\L	.	.
.	.	8cc#\	.	.
*Xped	*	*	*	*
4r	.	8dd\	.	.
.	.	8ee\J	.	.
=113	=113	=113	=113	=113
.	.	8qff#/	.	.
*ped	*	*	*	*
4GGG/	.	8fff#\L)	.	.
.	.	16r	.	.
.	.	(16fff#\Jk	.	.
4G\ 4B	.	4b\	.	.
.	.	(8qe/L	.	.
.	.	8qcc#/	.	.
.	.	8qdd/J	.	.
*Xped	*	*	*	*
4FF#\ 4A#X	.	4e/) 4cc#	.	.
!!LO:LB:g=original	!	!	!	!
=114	=114	=114	=114	=114
*ped	*	*	*	*
4BB\ 4B	.	2d/) 2b	.	.
4F#\ 4B 4d	.	.	.	.
4r	.	8r	.	.
!	!	!	!	!
.	.	(24f#\LL	.	.
.	.	24ff#\	.	.
.	.	24ff#\JJ	.	.
=115	=115	=115	=115	=115
4BBB/	.	8fff#\L)	.	.
.	.	16r	.	.
.	.	(16f#\Jk	.	.
4F#\ 4B 4d	.	4ddW\) 4ff#	.	.
!	!	!LO:TUP:a:problem:klamra łukowa	!	!
*Xped	*	*	*	*
4G\ 4B 4e	.	12cc#y\L 12ee	.	.
.	.	12dd\ 12ff#	.	.
.	.	12ee\J 12gg	.	.
=116	=116	=116	=116	=116
*ped	*	*	*	*
4BBB/	.	(8.ddW\L 8.ff#	.	.
.	.	16cc#y\Jk 16ee	.	.
4F#\ 4B 4d	.	4dd\ 4ff#	.	.
*Xped	*	*	*	*
4G\ 4B 4e	.	4cc#\) 4bb	.	.
=117	=117	=117	=117	=117
*ped	*	*	*	*
4BBB/	.	(8.bW\L 8.dd	.	.
.	.	16a#X\Jk 16cc#	.	.
4F#\ 4d	.	4b\ [4dd	.	.
*Xped	*	*	*	*
4GG\ 4G	.	4e/ 4b-X 4dd_ 4ee	.	.
=118	=118	=118	=118	=118
*ped	*	*	*	*
4DD/ 4D	.	4.f#\) 4.an 4.dd] 4.ff#	.	.
4F#\ 4A 4d	.	.	.	.
.	.	(8ff#\L	.	.
.	.	8qaa/	.	.
*Xped	*	*	*	*
4r	.	8.gg\	.	.
.	.	16ff#\Jk)	.	.
!!LO:LB:g=original	!	!	!	!
=119	=119	=119	=119	=119
.	.	(8qff#/	.	.
*ped	*	*	*	*
4GGG/	.	8fff#\L)	.	.
.	.	16r	.	.
.	.	(16fff#\Jk	.	.
4G\ 4B	.	4b\	.	.
.	.	(16qqe/LL	.	.
.	.	16qqcc#/	.	.
.	.	16qqdd/JJ	.	.
*Xped	*	*	*	*
4FF#\ 4A#X	.	4e/) 4cc#	.	.
=120	=120	=120	=120	=120
*ped	*	*	*	*
4BB\ 4B	.	8e/L) 8b	.	.
.	.	16r	.	.
.	.	(16f#/Jk	.	.
4F#\ 4B 4d	.	8b\L	.	.
.	.	8cc#\	.	.
*Xped	*	*	*	*
4r	.	8dd\	.	.
.	.	8ee\J	.	.
=121	=121	=121	=121	=121
.	.	8qff#/	.	.
*ped	*	*	*	*
4GGG/	.	8fff#\L)	.	.
.	.	16r	.	.
.	.	(16fff#\Jk	.	.
4G\ 4B	.	4b\	.	.
.	.	(16qqe/LL	.	.
.	.	16qqcc#/	.	.
.	.	16qqdd/JJ	.	.
*Xped	*	*	*	*
4FF#\ 4A#X	.	4e/) 4cc#	.	.
=122	=122	=122	=122	=122
*ped	*	*	*	*
4BB\ 4B	.	2d/) 2b	.	.
4F#\ 4B 4d	.	.	.	.
*Xped	*	*	*	*
4r	.	8r	.	.
.	.	(24b\LL	.	.
.	.	24bb\	.	.
.	.	24bb\JJ	.	.
=123	=123	=123	=123	=123
*	*	*^	*	*
*ped	*	*	*	*	*
4BBB/ 4BB	.	8bbb\L)	4ryy	.	.
.	.	16r	.	.	.
.	.	(16b\Jk	.	.	.
4F#\ 4B 4d#X	.	4bb/	4ff#\ 4aa	.	.
!	!	!LO:TUP:a:problem:klamra łukowa	!	!	!
*Xped	*	*	*	*	*
4DD#X/ 4D#X	.	12aa#X/L	4ff#\ 4aan	.	.
.	.	12bb/	.	.	.
.	.	12cccn/J	.	.	.
*	*	*v	*v	*	*
=124	=124	=124	=124	=124
*ped	*	*	*	*
4EE/ 4E	.	8gg\L) 8bb	.	.
.	.	16r	.	.
.	.	(16bbW\Jk 16ggg	.	.
4G\ 4B 4e	.	4aa\ 4fff#	.	.
*Xped	*	*	*	*
4GG\ 4G	.	4gg\ 4eee	.	.
=125	=125	=125	=125	=125
*ped	*	*	*	*
4BB\ 4B	.	8ff#\L) 8ddd#X	.	.
.	.	16r	.	.
.	.	(16ee\Jk 16cccn	.	.
4F#\ 4B 4d#X	.	8dd#X\L 8bb	.	.
.	.	8ccn\ 8aa	.	.
*Xped	*	*	*	*
4BBB/ 4BB	.	8b\ 8gg	.	.
.	.	8a\J 8ff#	.	.
=126	=126	=126	=126	=126
.	.	8qaa/	.	.
*ped	*	*	*	*
4EE/ 4E	.	8.b\L 8.gg	.	.
.	.	16a\Jk 16ff#	.	.
4G\ 4e	.	8g\L) 8ee	.	.
.	.	(8dd#X\	.	.
*Xped	*	*	*	*
4r	.	8ee\	.	.
.	.	8ee#X\J	.	.
!!LO:PB:g=original	!	!	!	!
=127	=127	=127	=127	=127
.	.	8qff#/	.	.
*	*	*^	*	*
*ped	*	*	*	*	*
4AAA#X/ 4AA#X	.	8ff#\L) 8ccc# 8fff#	4ryy	.	.
.	.	16r	.	.	.
.	.	(16f#\Jk	.	.	.
4F#\ 4c# 4e	.	4cc#m\ 4ff#	4ryy	.	.
!	!	!LO:TUP:a:problem:klamra łukowa	!	!	!
*Xped	*	*	*	*	*
4F#\ 4A#X 4e	.	12ee#X/L	4cc#\ 4een	.	.
.	.	12ff#/	.	.	.
.	.	12gg/J	.	.	.
=128	=128	=128	=128	=128	=128
*ped	*	*	*	*	*
4BBB/ 4BB	.	8.dd\L) 8.ff#	4ryy	.	.
.	.	[<16ff#\Jk	.	.	.
4F#\ 4B 4d	.	2ff#/]	4dd\ 4ddd	.	.
*Xped	*	*	*	*	*
4AAAn/ 4AAn	.	.	4cc#\ 4ccc#	.	.
=129	=129	=129	=129	=129	=129
.	.	.	(<8qcc#/ 8qccc#	.	.
*ped	*	*	*	*	*
4GGG/ 4GG	.	2ff#/	8.b\L) 8.bb	.	.
.	.	.	16a#X\Jk 16aa#X	.	.
4G\	.	.	2b\ 2bb	.	.
*Xped	*	*	*	*	*
4G\ 4c#	.	4ee#X/	.	.	.
*	*	*v	*v	*	*
=130	=130	=130	=130	=130
*ped	*	*	*	*
4F#\ 4c#	.	8a#X\L 8ff#	.	.
.	.	16r	.	.
.	.	(16ff#\Jk	.	.
4FFF#/ 4FF#	.	4aa#X\) 4fff#	.	.
!	!	!LO:TUP:a:problem:klamra łukowa	!	!
(12d\L 12f#	.	12g#X\L 12b	.	.
*Xped	*	*	*	*
12c#\	.	12a#\ 12cc#	.	.
12B\J	.	12b\J 12dd	.	.
=131	=131	=131	=131	=131
*^	*	*	*	*
2f#/)	4c#\	.	8.aW\L 8.cc#	.	.
.	.	.	16g#X\Jk 16b	.	.
.	4F#\	.	4a\ 4cc#	.	.
*ped	*	*	*	*	*
4FF#/ 4F#	4ryy	.	4f#\ 4ff#	.	.
*v	*v	*	*	*	*
!!LO:LB:g=original	!	!	!	!
=132	=132	=132	=132	=132
*	*	*8va	*	*
*	*	*^	*	*
*	*	*	*^	*	*
4FFF#/ 4FF#	.	8fff#\L 8ffff#	4ryy	2ryy	.	.
*	*	*X8va	*	*	*	*
.	.	16r	.	.	.	.
!	!	!LO:TX:a:i:t=loco	!	!	!	!
.	.	[<16f#\Jk	.	.	.	.
4F#\ 4c#	.	2cc#/	4f#\] 4a#X	.	.	.
!	!	!	!	!LO:TUP:a:problem:klamra łukowa	!	!
*Xped	*	*	*	*	*	*
4C#\ 4B	.	.	4e#X\	12g#X/L	.	.
.	.	.	.	12a#/	.	.
.	.	.	.	12g#/J	.	.
*	*	*	*v	*v	*	*
=133	=133	=133	=133	=133	=133
8.F#\L 8.A#X	.	8f#/L	8c#\L	.	.
.	.	16r	16r	.	.
16BB\Jk 16F#	.	16d#X/Jk	16B\Jk	.	.
4FF#/ 4F#	.	4A#X/ 4c# 4f#	2ryy	.	.
*ped	*	*	*	*	*
[4FF#/	.	4f#'\ 4ff#	.	.	.
*	*	*v	*v	*	*
=134	=134	=134	=134	=134
*^	*	*	*	*
4FFF#/ 4FF#]	4ryy	.	8ff#\L 8fff#	.	.
.	.	.	16r	.	.
.	.	.	16f#\Jk	.	.
2f#/	4F#\ 4c#	.	4a#XW\ 4cc#	.	.
!	!LO:TUP:a:problem:klamra łukowa	!	!LO:TUP:a:problem:klamra łukowa	!	!
.	12dn\L	.	12g#X\L 12b	.	.
*Xped	*	*	*	*	*
.	12c#\	.	12a#\ 12cc#	.	.
*	*	*	*	*	*
.	12B\J	.	12b\J 12ddn	.	.
!!LO:LB:g=original	!	!	!	!	!
=135	=135	=135	=135	=135	=135
2f#/	4c#\	.	8.a#Xm\L 8.cc#	.	.
.	.	.	16g#X\Jk 16b	.	.
.	4F#\	.	4a#\ 4cc#	.	.
*ped	*	*	*	*	*
4FF#/ 4F#	4ryy	.	4f#\ 4ff#	.	.
*v	*v	*	*	*	*
=136	=136	=136	=136	=136
*	*	*8va	*	*
*	*	*^	*	*
*	*	*	*^	*	*
4FFF#/ 4FF#	.	8fff#\L 8ffff#	4ryy	2ryy	.	.
*	*	*X8va	*	*	*	*
.	.	16r	.	.	.	.
!	!	!LO:TX:a:i:t=loco	!	!	!	!
.	.	[<16f#\Jk	.	.	.	.
4F#\ 4c#	.	2cc#/	4f#\] 4a#X	.	.	.
!	!	!	!	!LO:TUP:a:problem:klamra łukowa	!	!
*Xped	*	*	*	*	*	*
4C#\ 4B	.	.	4e#X\	12g#X/L	.	.
.	.	.	.	12a#/	.	.
.	.	.	.	12g#/J	.	.
*	*	*	*v	*v	*	*
=137	=137	=137	=137	=137	=137
2F#\ 2A#X	.	8.f#/L	2c#\	.	.
.	.	16c#/Jk	.	.	.
.	.	4f#/	.	.	.
!	!	!LO:TUP:a:problem:klamra łukowa	!	!	!
4E#X\ 4B	.	12g/L	4d\	.	.
.	.	12an/	.	.	.
.	.	12g/J	.	.	.
=138	=138	=138	=138	=138	=138
2F#\ 2A#X	.	8.f#/L	2c#\	.	.
.	.	16c#/Jk	.	.	.
.	.	4f#/	.	.	.
!	!	!LO:TUP:a:problem:klamra łukowa	!	!	!
4E#X\ 4B	.	12g/L	4d\	.	.
.	.	12an/	.	.	.
.	.	12g/J	.	.	.
=139	=139	=139	=139	=139	=139
*^	*	*	*	*	*
2F#/	[2.FF#\	.	8.f#/L	2A#X\ 2c#	.	.
.	.	.	16c#/Jk	.	.	.
.	.	.	4f#/	.	.	.
!	!	!	!LO:TUP:a:problem:klamra łukowa	!	!	!
4E/	.	.	12g/L	4A#\ 4c#	.	.
.	.	.	12an/	.	.	.
.	.	.	12g/J	.	.	.
=140	=140	=140	=140	=140	=140	=140
*	*^	*	*	*	*	*
8.B/L	2.FF#\]	4D#X\	.	2.f#/	(>4f#\	.	.
16F#/Jk	.	.	.	.	.	.	.
4G#X/ 4B	.	4Dn\	.	.	4e#X\	.	.
4A#X/	.	4C#\	.	.	4en\)	.	.
*v	*v	*v	*	*	*	*	*
*	*	*v	*v	*	*
!!LO:LB:g=original	!	!	!	!
=141	=141	=141	=141	=141
!	!	!	!	!
*	*	*tuplet	*	*
!	!	!LO:TX:t=P:problem: triola na przednutce	!	!
.	.	(>16qqB/LL 16qqd	.	.
.	.	16qqf#/	.	.
!	!	!	!	!
.	.	16qqff#/JJ	.	.
*ped	*	*	*	*
4BBB/	.	8fff#\L)	.	.
.	.	16r	.	.
.	.	(16f#\Jk	.	.
4F#\ 4B 4d	.	4ddW\) 4ff#	.	.
!	!	!LO:TUP:a:problem:klamra łukowa	!	!
*Xped	*	*	*	*
4G\ 4B 4e	.	12cc#y\L 12ee	.	.
.	.	12dd\ 12ff#	.	.
.	.	12ee\J 12gg	.	.
=142	=142	=142	=142	=142
*ped	*	*	*	*
4BBB/	.	8.ddW\L 8.ff#	.	.
.	.	16cc#y\Jk 16ee	.	.
4F#\ 4B 4d	.	4dd\ 4ff#	.	.
*Xped	*	*	*	*
4G\ 4B 4e	.	4cc#\ 4bb	.	.
=143	=143	=143	=143	=143
*ped	*	*	*	*
4BBB/	.	8.bW\L 8.dd	.	.
.	.	16a#X\Jk 16cc#	.	.
4F#\ 4B 4d	.	4b\ 4dd	.	.
*Xped	*	*	*	*
4G\ 4B 4e	.	4g\ 4cc# 4ee	.	.
=144	=144	=144	=144	=144
*ped	*	*	*	*
4BBB/ 4BB	.	4.f#\ 4.dd 4.ff#	.	.
4F#\ 4B 4d	.	.	.	.
.	.	(8ff#\L	.	.
.	.	8qaa/	.	.
*Xped	*	*	*	*
4r	.	8.gg^<\	.	.
.	.	16ff#\Jk	.	.
=145	=145	=145	=145	=145
.	.	8qff#/	.	.
*ped	*	*	*	*
4GGG/	.	8fff#\L)	.	.
.	.	16r	.	.
.	.	(16fff#\Jk	.	.
4G\ 4B	.	4b\)	.	.
.	.	(16qqe/LL	.	.
.	.	16qqcc#/	.	.
.	.	16qqdd/JJ	.	.
*Xped	*	*	*	*
4FF#\ 4A#X	.	4e/) 4cc#	.	.
!!LO:LB:g=original	!	!	!	!
=146	=146	=146	=146	=146
*ped	*	*	*	*
4BB\ 4B	.	8d/L 8b	.	.
.	.	16r	.	.
.	.	(16f#/Jk	.	.
4F#\ 4B 4d	.	8b\L	.	.
.	.	8cc#\	.	.
*Xped	*	*	*	*
4r	.	8dd\	.	.
.	.	8ee\J	.	.
=147	=147	=147	=147	=147
.	.	8qff#/	.	.
*ped	*	*	*	*
4GG/	.	8fff#\L)	.	.
.	.	16r	.	.
.	.	(16fff#\Jk	.	.
*Xped	*	*	*	*
2G\ 2B 2d 2f#	.	(2b\)	.	.
=148	=148	=148	=148	=148
.	.	8qee#X/	.	.
*ped	*	*	*	*
4GG/	.	8ccc#\L)	.	.
.	.	16r	.	.
.	.	(16ccc#\Jk	.	.
*Xped	*	*	*	*
2G\ 2B 2c# 2e#X	.	2b\)	.	.
=149	=149	=149	=149	=149
.	.	(8qff#/	.	.
*ped	*	*8va	*	*
8F#\ 8B 8d 8f#	.	8ffff#\L)	.	.
8r	.	16r	.	.
.	.	16ffff#\Jk	.	.
*	*	*X8va	*	*
!	!	!LO:TX:a:i:t=loco	!	!
4r	.	4.f#/	.	.
8r	.	.	.	.
.	.	(16qqe/LL	.	.
.	.	16qqcc#/	.	.
.	.	16qqdd/JJ	.	.
*Xped	*	*	*	*
8FF#\ 8A#X	.	8e/) 8cc#	.	.
=150	=150	=150	=150	=150
*ped	*	*	*	*
8BB\ 8B	.	8d/ 8b	.	.
8r	.	8r	.	.
4BBB/ 4FF# 4BB	.	4bb\ 4fff# 4bbb	.	ff
*Xped	*	*	*	*
4r	.	4r	.	.
==	==	==	==	==
*-	*-	*-	*-	*-
!!!system-decoration: {(s1,s2)}
!!!RDF**kern: > = above
!!!RDF**kern: < = below
!!!RDF**kern: N = linked
!!!ENC: Andrzej Gręziak
!!!END: 2022-07-22
!!!ENC: Jan Barakat
!!!END: 2022-08-17
!!!YEC: Copyright 2022 Narodowy Instytut Fryderyka Chopina (https://polishscores.org)
!!!YEM: Licence CC BY 4.0 (https://creativecommons.org/licenses/by/4.0)
